X: 25757
T: Mary Prentice's
R: jig
M: 6/8
K: Amixolydian
A>cf e2A|a>fe f>ec|a>fe f>ec|B>GB e>dB|
A>cf e2A|a>fe f>ec|a>Af e2c|B>GB A2e:|
|:e>AA A>ce|f>dd d>fa|e>AA A>ce|B>GB e>dB|
e>AA A>ce|f>dd d>fa|A>ce B>Ge|A>AA A2e:|

